X:1
T:Title
%%score { ( 1 2 ) | ( 3 4 ) }
L:1/8
M:4/4
K:D
V:1 treble nm="Grand Piano"
V:2 treble 
V:3 bass 
V:4 bass 
V:1
 z4 z2[Q:1/4=100] z E | F2 F2 FE z E | F2 [FA]2 [FA]2 Bc | d2 [FA]B [DFA]2 [A,DF]2 | %4
[M:3/4][K:bass] [A,CE]6 |[M:1/4] D2[K:treble] |[M:4/4] F2 F2 FE z E | F2 [FA]2 [FA]2 Bc | %8
 d2 FG [DF]2[K:bass] [G,CE]2 | [F,D]6 z2 | [FA]>[FA] [FA]>[GB] [FA]F D>E | F2 [FA]2 [FA]4 | %12
 BB B>B [DFA]2 [A,DF]2 | [A,CE]2 [DF]2 [CEG]4 | [A,DF]>[A,DF] [A,DF]>[A,EG] [DFA]2 [DFA]2 | %15
 G4- [Gd]3 B | A2 A>A [DFA][A,DF] [G,CE]>[A,CF] |[M:3/4][K:bass] D6 |] %18
V:2
 z4 z2 D2 | z4 z2 D2 | x8 | x8 |[M:3/4][K:bass] x6 |[M:1/4] F,[K:treble]E |[M:4/4] z4 z2 D2 | x8 | %8
 x6[K:bass] x2 | x8 | x8 | x8 | x8 | x8 | x8 | [DB]4 z4 | x8 |[M:3/4][K:bass] F,A, B,>B, A,2 |] %18
V:3
 z4 z2 F,G, | z4 .A,2 .F,2 | [D,A,D]2 [D,D]2 [D,D]2 [G,B,D]2 | [F,A,D]2 z G D,2 D,2 |[M:3/4] A,,6 | %5
[M:1/4] z G, |[M:4/4] z4 .A,2 .F,2 | [D,A,D]2 [D,D]2 [D,D]2 [G,B,D]2 | [F,A,D]2 DE A,2 A,,2 | %9
 D,6 z2 | [D,D]>[D,D] [D,D]>[D,D] [D,D][D,A,D] [D,F,A,]>[D,G,A,] | [D,A,D]2 [D,D]2 [D,D]4 | %12
 [G,DG][G,DG] [G,DG]>[G,DG][K:bass] D,2 D,2 | A,,2 A,,2 A,,4 | D,>D, D,>D, D,2 D,2 | %15
 z4 B,3[K:treble] [G,DG] | [A,DF]2 [A,DF]>[A,DF][K:bass] A,,A,, A,,>A,, |[M:3/4] z F, G,>G, F,2 |] %18
V:4
 z4 z2 D,2 | [D,A,D]2 [D,A,D]2 [D,D]-[D,G,D]D,-[D,G,] | x8 | z2 [D,D]2 z4 |[M:3/4] x6 | %5
[M:1/4] D,2 |[M:4/4] [D,A,D]2 [D,A,D]2 [D,D]-[D,G,D]D,-[D,G,] | x8 | z2 [D,A,]2 z4 | x8 | x8 | x8 | %12
 x4[K:bass] x4 | x8 | x8 | G,8[K:treble] | x4[K:bass] x4 |[M:3/4] D,6 |] %18

